public/logos/NC.svg

<?xml version="1.0" encoding="UTF-8"?>
<svg xmlns="http://www.w3.org/2000/svg" xmlns:xlink="http://www.w3.org/1999/xlink" width="176pt" height="54.6pt" viewBox="0 0 176 54.6" version="1.1">
<defs>
<clipPath id="clip1">
  <path d="M 102 30 L 176 30 L 176 54.601562 L 102 54.601562 Z M 102 30 "/>
</clipPath>
</defs>
<g id="surface1">
<path style=" stroke:none;fill-rule:evenodd;fill:rgb(92.967224%,11.306763%,14.064026%);fill-opacity:1;" d="M 77.964844 31.453125 C 84.433594 30.148438 90.4375 28.933594 96.601562 27.6875 C 93.683594 22.195312 91.113281 16.785156 88.039062 11.191406 C 84.617188 18.070312 81.382812 24.574219 77.964844 31.453125 Z M 160.28125 0.00390625 C 161.816406 -0.0195312 164.425781 0.792969 166.390625 1.347656 C 170.382812 2.464844 172.957031 5.199219 174.300781 9.105469 C 175.46875 12.511719 175.957031 16.070312 176 19.679688 C 170.730469 19.679688 164.757812 19.632812 159.519531 19.632812 C 159.484375 19.03125 159.460938 18.492188 159.414062 17.957031 C 159.25 16.066406 158.335938 14.683594 156.511719 14.082031 C 155.414062 13.71875 154.25 13.363281 153.113281 13.351562 C 146.148438 13.28125 139.179688 13.296875 132.214844 13.328125 C 131.191406 13.335938 130.121094 13.453125 129.15625 13.773438 C 126.382812 14.6875 124.394531 16.566406 124.332031 20.429688 C 124.304688 22.222656 124.328125 24.019531 124.328125 25.8125 C 124.328125 26.488281 124.328125 27.164062 124.328125 27.859375 C 103.265625 33.003906 83.59375 40.777344 66.507812 54.4375 C 53.914062 54.4375 41.230469 54.4375 28.464844 54.4375 C 32.679688 50.585938 37.34375 47.460938 42.394531 44.835938 C 39.644531 44.953125 37.230469 46.261719 34.515625 47.046875 C 28.71875 36.5625 22.90625 26.042969 17.09375 15.527344 C 16.496094 17.660156 16.699219 19.738281 16.660156 21.800781 C 16.621094 24.007812 16.652344 26.214844 16.652344 28.421875 C 16.652344 30.558594 16.652344 32.699219 16.652344 34.835938 C 16.652344 36.976562 16.652344 39.113281 16.652344 41.25 C 16.652344 43.460938 16.652344 45.667969 16.652344 47.875 C 16.652344 50.003906 16.652344 52.132812 16.652344 54.382812 C 11.097656 54.382812 5.679688 54.382812 0.140625 54.382812 C 0.0898438 53.898438 0.00390625 53.441406 0.00390625 52.980469 C 0 35.667969 0 18.355469 0.00390625 1.042969 C 0.00390625 0.699219 0.046875 0.355469 0.0664062 0.0117188 C 9.035156 0.0117188 18 0.0117188 26.96875 0.0117188 C 27.101562 0.390625 27.1875 0.800781 27.378906 1.148438 C 28.503906 3.199219 29.652344 5.234375 30.789062 7.28125 C 36.621094 17.800781 42.453125 28.328125 48.289062 38.847656 C 48.609375 39.421875 48.988281 39.972656 49.335938 40.53125 C 49.46875 40.496094 49.601562 40.460938 49.730469 40.425781 C 49.730469 26.953125 49.730469 13.480469 49.730469 0.0117188 C 55.386719 0.0117188 61.042969 0.0117188 66.699219 0.0117188 C 66.65625 0.488281 66.574219 0.964844 66.570312 1.4375 C 66.507812 5.566406 66.433594 9.695312 66.417969 13.824219 C 66.410156 15.140625 66.554688 16.453125 66.65625 18.195312 C 67.082031 17.488281 67.300781 17.15625 67.488281 16.808594 C 69.421875 13.171875 71.367188 9.535156 73.277344 5.886719 C 74.292969 3.945312 75.242188 1.96875 76.21875 0.0117188 C 84.21875 0.0117188 92.222656 0.0117188 100.222656 0.0117188 C 100.480469 0.414062 100.765625 0.804688 100.992188 1.226562 C 103.003906 4.96875 105.003906 8.71875 107.011719 12.457031 C 107.320312 13.03125 107.683594 13.578125 108.132812 14.328125 C 108.726562 12.351562 109.121094 10.636719 109.75 9.011719 C 111.023438 5.738281 113.230469 3.332031 116.601562 2.082031 C 119.121094 1.148438 121.894531 -0.0195312 124.546875 0.00390625 C 125.050781 0.0078125 159.832031 0.0078125 160.28125 0.00390625 "/>
<g clip-path="url(#clip1)" clip-rule="nonzero">
<path style=" stroke:none;fill-rule:evenodd;fill:rgb(92.967224%,11.306763%,14.064026%);fill-opacity:1;" d="M 110.417969 54.597656 C 107.894531 49.65625 105.464844 44.894531 102.960938 39.988281 C 109.675781 35.976562 116.601562 32.730469 123.90625 30.199219 C 124.574219 30.792969 124.265625 31.519531 124.3125 32.15625 C 124.449219 33.941406 124.574219 35.71875 125.464844 37.34375 C 126.796875 39.773438 129.140625 40.484375 131.59375 40.996094 C 132.128906 41.109375 132.691406 41.09375 133.242188 41.09375 C 140.066406 41.097656 146.890625 41.085938 153.710938 41.101562 C 155.660156 41.105469 157.328125 40.585938 158.6875 39.085938 C 159.714844 37.953125 160.304688 36.71875 160.292969 35.195312 C 160.289062 34.785156 160.292969 34.375 160.292969 33.980469 C 161.757812 33.5625 172.105469 33.441406 175.871094 33.796875 C 175.910156 34.222656 175.992188 34.675781 175.992188 35.128906 C 176 37.402344 176.011719 39.679688 175.972656 41.953125 C 175.921875 45.226562 174.640625 47.949219 172.160156 50.085938 C 169.308594 52.539062 165.980469 53.796875 162.25 54.265625 C 158.949219 54.683594 155.65625 54.585938 152.355469 54.589844 C 139.191406 54.609375 126.027344 54.597656 112.863281 54.597656 C 112.109375 54.597656 111.355469 54.597656 110.417969 54.597656 "/>
</g>
</g>
</svg>

<svg xmlns="http://www.w3.org/2000/svg" width="176pt" height="72.8" viewBox="0 0 176 54.6"><defs><clipPath id="a"><path d="M102 30h74v24.602h-74Zm0 0"/></clipPath></defs><path d="M77.965 31.453c6.469-1.305 12.472-2.52 18.637-3.765-2.918-5.493-5.489-10.903-8.563-16.497a48799 48799 0 0 0-10.074 20.262M160.28.003c1.535-.023 4.145.79 6.11 1.345 3.992 1.117 6.566 3.851 7.91 7.757 1.168 3.407 1.656 6.965 1.699 10.575-5.27 0-11.242-.047-16.48-.047-.036-.602-.06-1.14-.106-1.676-.164-1.89-1.078-3.273-2.902-3.875-1.098-.363-2.262-.719-3.399-.73-6.965-.07-13.933-.055-20.898-.024-1.024.008-2.094.125-3.059.445-2.773.915-4.761 2.793-4.824 6.657-.027 1.793-.004 3.59-.004 5.383v2.046c-21.062 5.145-40.734 12.918-57.82 26.579H28.465c4.215-3.852 8.879-6.977 13.93-9.602-2.75.117-5.165 1.426-7.88 2.21-5.796-10.483-11.609-21.003-17.421-31.519-.598 2.133-.395 4.211-.434 6.274-.039 2.207-.008 4.414-.008 6.62v25.962H.141C.09 53.898.004 53.44.004 52.98q-.006-25.968 0-51.937C.004.699.047.355.066.012H26.97c.133.379.218.789.41 1.136 1.125 2.051 2.273 4.086 3.41 6.133 5.832 10.52 11.664 21.047 17.5 31.567.32.574.7 1.125 1.047 1.683l.394-.105V.012H66.7c-.044.476-.126.953-.13 1.426-.062 4.128-.136 8.257-.152 12.386-.008 1.317.137 2.63.238 4.371.426-.707.645-1.039.832-1.386 1.934-3.637 3.88-7.274 5.79-10.922 1.015-1.942 1.964-3.918 2.94-5.875h24.005c.257.402.543.793.77 1.215 2.01 3.742 4.01 7.492 6.019 11.23.308.574.672 1.121 1.12 1.871.595-1.976.99-3.691 1.618-5.316 1.273-3.274 3.48-5.68 6.852-6.93 2.52-.934 5.293-2.102 7.945-2.078.504.004 35.285.004 35.734 0" style="stroke:none;fill-rule:evenodd;fill:#ed1d24;fill-opacity:1"/><g clip-path="url(#a)"><path d="m110.418 54.598-7.457-14.61c6.715-4.011 13.64-7.258 20.945-9.789.668.594.36 1.32.406 1.957.137 1.785.262 3.563 1.153 5.188 1.332 2.43 3.676 3.14 6.129 3.652.535.113 1.097.098 1.648.098 6.824.004 13.649-.008 20.469.008 1.95.003 3.617-.516 4.976-2.016 1.028-1.133 1.618-2.367 1.606-3.89-.004-.41 0-.821 0-1.216 1.465-.417 11.812-.539 15.578-.183.04.426.121.879.121 1.332.008 2.273.02 4.55-.02 6.824-.05 3.274-1.331 5.996-3.812 8.133-2.851 2.453-6.18 3.71-9.91 4.18-3.3.418-6.594.32-9.895.324-13.164.02-26.328.008-39.492.008z" style="stroke:none;fill-rule:evenodd;fill:#ed1d24;fill-opacity:1"/></g></svg>
